assets/images/StarterX-Badges_Quality-Excellence.svg

<svg width="80" height="80" viewBox="0 0 80 80" fill="none" xmlns="http://www.w3.org/2000/svg">
<path d="M40.02 2.16002C42.53 2.21002 44.76 3.04002 46.67 4.71002C47.88 5.76002 49.08 6.83002 50.3 7.86002C51.76 9.09002 53.47 9.78002 55.37 9.99002C57.27 10.2 59.19 10.23 61.07 10.53C64.75 11.12 67.33 13.17 68.86 16.56C69.4 17.75 69.57 19.03 69.68 20.32C69.83 22.05 69.87 23.8 70.19 25.52C70.54 27.4 71.47 28.99 72.74 30.41C73.71 31.5 74.68 32.59 75.6 33.72C78.73 37.54 78.6 43.03 75.32 46.74C74.26 47.94 73.2 49.14 72.17 50.37C70.94 51.84 70.25 53.54 70.05 55.44C69.86 57.33 69.77 59.23 69.51 61.1C68.92 65.32 65.78 68.62 61.62 69.49C60.42 69.74 59.18 69.75 57.97 69.88C56.47 70.04 54.95 70.03 53.5 70.5C51.85 71.04 50.5 72.03 49.21 73.14C48.11 74.1 47.03 75.09 45.84 75.94C41.99 78.69 36.99 78.44 33.37 75.34C32.16 74.31 30.95 73.28 29.73 72.26C28.05 70.84 26.07 70.19 23.9 70.02C22.05 69.87 20.18 69.82 18.35 69.48C14.35 68.74 11.03 65.24 10.46 61.2C10.23 59.59 10.12 57.96 10.02 56.34C9.87003 53.75 8.92003 51.54 7.19003 49.63C6.23003 48.57 5.29003 47.48 4.38003 46.37C1.24003 42.53 1.36003 37.07 4.65003 33.35C5.76003 32.09 6.87003 30.83 7.94003 29.53C9.12003 28.09 9.75003 26.41 9.93003 24.57C10.12 22.66 10.23 20.73 10.48 18.83C11.02 14.69 14.64 11.07 18.77 10.52C20.19 10.33 21.62 10.2 23.05 10.13C25.5 10.01 27.78 9.42002 29.7 7.83002C30.93 6.81002 32.13 5.74002 33.34 4.69002C35.25 3.03002 37.48 2.20002 40.01 2.15002L40.02 2.16002ZM19.29 39.97C19.3 51.51 28.63 60.84 40.14 60.83C51.63 60.83 60.96 51.47 60.95 39.97C60.95 28.47 51.58 19.16 40.04 19.17C28.63 19.17 19.27 28.56 19.29 39.97Z" fill="#008A9B"/>
<path d="M31.89 34.62C32.3 34.61 32.6 34.81 32.88 35.08C34.37 36.57 35.86 38.06 37.35 39.55C37.61 39.81 37.8667 39.8134 38.12 39.56C41.16 36.52 44.2 33.48 47.24 30.44C48.05 29.63 48.73 29.63 49.53 30.44C50.79 31.72 52.05 33 53.3 34.28C54.06 35.05 54.06 35.73 53.3 36.49C48.47 41.3 43.63 46.11 38.79 50.92C38.11 51.59 37.39 51.6 36.72 50.92C33.43 47.63 30.14 44.34 26.86 41.06C26.23 40.43 26.23 39.71 26.84 39.09C28.19 37.73 29.54 36.39 30.89 35.03C31.17 34.75 31.49 34.59 31.89 34.61V34.62Z" fill="#008A9B"/>
</svg>

<?xml version="1.0" encoding="UTF-8"?>
<svg id="Layer_1" data-name="Layer 1" xmlns="http://www.w3.org/2000/svg" viewBox="0 0 80 80">
  <defs>
    <style>
      .cls-1 {
        fill: #eae1b9;
        stroke-width: 0px;
      }
    </style>
  </defs>
  <g id="NLsotc.tif">
    <g>
      <path class="cls-1" d="M40.02,2.16c2.51.05,4.74.88,6.65,2.55,1.21,1.05,2.41,2.12,3.63,3.15,1.46,1.23,3.17,1.92,5.07,2.13,1.9.21,3.82.24,5.7.54,3.68.59,6.26,2.64,7.79,6.03.54,1.19.71,2.47.82,3.76.15,1.73.19,3.48.51,5.2.35,1.88,1.28,3.47,2.55,4.89.97,1.09,1.94,2.18,2.86,3.31,3.13,3.82,3,9.31-.28,13.02-1.06,1.2-2.12,2.4-3.15,3.63-1.23,1.47-1.92,3.17-2.12,5.07-.19,1.89-.28,3.79-.54,5.66-.59,4.22-3.73,7.52-7.89,8.39-1.2.25-2.44.26-3.65.39-1.5.16-3.02.15-4.47.62-1.65.54-3,1.53-4.29,2.64-1.1.96-2.18,1.95-3.37,2.8-3.85,2.75-8.85,2.5-12.47-.6-1.21-1.03-2.42-2.06-3.64-3.08-1.68-1.42-3.66-2.07-5.83-2.24-1.85-.15-3.72-.2-5.55-.54-4-.74-7.32-4.24-7.89-8.28-.23-1.61-.34-3.24-.44-4.86-.15-2.59-1.1-4.8-2.83-6.71-.96-1.06-1.9-2.15-2.81-3.26-3.14-3.84-3.02-9.3.27-13.02,1.11-1.26,2.22-2.52,3.29-3.82,1.18-1.44,1.81-3.12,1.99-4.96.19-1.91.3-3.84.55-5.74.54-4.14,4.16-7.76,8.29-8.31,1.42-.19,2.85-.32,4.28-.39,2.45-.12,4.73-.71,6.65-2.3,1.23-1.02,2.43-2.09,3.64-3.14,1.91-1.66,4.14-2.49,6.67-2.54ZM19.29,39.97c.01,11.54,9.34,20.87,20.85,20.86,11.49,0,20.82-9.36,20.81-20.86,0-11.5-9.37-20.81-20.91-20.8-11.41,0-20.77,9.39-20.75,20.8Z"/>
      <path class="cls-1" d="M31.89,34.62c.41-.01.71.19.99.46,1.49,1.49,2.98,2.98,4.47,4.47q.39.39.77.01c3.04-3.04,6.08-6.08,9.12-9.12.81-.81,1.49-.81,2.29,0,1.26,1.28,2.52,2.56,3.77,3.84.76.77.76,1.45,0,2.21-4.83,4.81-9.67,9.62-14.51,14.43-.68.67-1.4.68-2.07,0-3.29-3.29-6.58-6.58-9.86-9.86-.63-.63-.63-1.35-.02-1.97,1.35-1.36,2.7-2.7,4.05-4.06.28-.28.6-.44,1-.42Z"/>
    </g>
  </g>
</svg>
